X: 449
T: A Tune For The Clan
R: jig
M: 6/8
K: Gmajor
|:D2 G GFG|BdB AGE|D2 B BAG|ABA GED|
D2 G GFG|BdB AGE|D2 B BAG|AGE G3:|
|:E2 B BAG|ABA GED|E2 B BAG|
[1 ABA dBA|E2 B BAG|ABA GED|cBA BAG|AGE G2 D:|
[2 ABA d3|D2 G GFG|BdB AGE|D2 B BAG|AGE G3||

